X: 181	% 49
T: Galop or Quadrille
T: (Name Unknown)
S: Viola Ruth "Pioneer Western Folk Tunes" 1948 p.18 #1
R: galop, polka, march
Z: 2019 John Chambers <jc:trillian.mit.edu>
M: 2/4
L: 1/16
K: C
V: 1 name="49"
|:\
"^^"gggg "^^"g2e2 | "^^"cccc c2G2 | "^^"A2d2 "^^"A2B2 | cBcd e2(ef) |\
gggg g2e2 | cccc c2G2 | A2d2A2B2 | [c4E4] [c4E4] :|
|:\
"^^"G2c2 cdcB | A2d2 d3c | B3d g3g | a2g2 e4 |\
G2c2 cdcB | A2d2 d3c | B2d2 g3g | a2g2 c4 :|
